icons/circle-person-outline.svg

<svg xmlns="http://www.w3.org/2000/svg" width="24" height="24" viewBox="0 0 24 24">
  <path d="M12,1 C18.0722847,1 23,5.92771525 23,12 C23,18.0722847 18.0722847,23 12,23 C5.92771525,23 1,18.0722847 1,12 C1,5.92771525 5.92771525,1 12,1 Z M12,3 C7.03228475,3 3,7.03228475 3,12 C3,16.9677153 7.03228475,21 12,21 C16.9677153,21 21,16.9677153 21,12 C21,7.03228475 16.9677153,3 12,3 Z M13,13 C16,13 18,14 18,15 C18,17 14.9166667,19 12,19 C9.08333333,19 6,17 6,15 C6,14 8,13 11,13 L13,13 L13,13 Z M12,5 C13.66,5 15,6.34 15,8 C15,9.66 13.66,11 12,11 C10.34,11 9,9.66 9,8 C9,6.34 10.34,5 12,5 Z"/>
</svg>

<svg xmlns="http://www.w3.org/2000/svg" viewBox="0 0 24 24">
  <path d="M12 1a11 11 0 1 1 0 22 11 11 0 0 1 0-22zm0 2a9 9 0 1 0 0 18 9 9 0 0 0 0-18zm1 10c3 0 5 1 5 2 0 2-3.08 4-6 4s-6-2-6-4c0-1 2-2 5-2h2zm-1-8a3 3 0 1 1 0 6 3 3 0 0 1 0-6z"/>
</svg>
